resources/icons/wallets/crypto.svg

<svg viewBox="0 0 214 214" fill="none" xmlns="http://www.w3.org/2000/svg">
<rect width="214" height="214" rx="8" fill="#E6EFF9"/>
<path d="M96.9542 33.8354C103.165 30.2274 110.835 30.2274 117.046 33.8354L165.046 61.7178C171.208 65.2973 175 71.8853 175 79.0118V134.988C175 142.115 171.208 148.703 165.046 152.282L117.046 180.165C110.835 183.773 103.165 183.773 96.9542 180.165L48.9542 152.282C42.792 148.703 39 142.115 39 134.988V79.0118C39 71.8853 42.792 65.2973 48.9542 61.7178L96.9542 33.8354Z" fill="#154A82"/>
<path d="M143.172 101.139C141.032 99.5185 138.076 99.5166 135.934 101.134L127.637 107.4C126.135 108.533 125.253 110.306 125.253 112.188V121.5C125.253 123.286 124.457 124.98 123.082 126.12L116.132 131.88C114.757 133.02 113.962 134.714 113.962 136.5V137.596C113.962 139.234 114.631 140.8 115.814 141.932L121.255 147.136C122.371 148.204 123.857 148.8 125.402 148.8H128.896C130.858 148.8 132.696 147.841 133.818 146.231L154.323 116.812C156.165 114.169 155.591 110.543 153.022 108.598L143.172 101.139ZM78.2494 100.978C76.2014 99.4276 73.3962 99.3796 71.2808 100.836L60.9694 107.938C58.2294 109.825 57.5478 113.581 59.4501 116.31L79.8027 145.511C80.9247 147.121 82.7629 148.08 84.7251 148.08H88.2189C89.764 148.08 91.2496 147.484 92.3662 146.416L97.8066 141.212C98.99 140.08 99.6593 138.514 99.6593 136.876V135.924C99.6593 134.056 98.7892 132.294 97.3055 131.159L90.722 126.121C89.2383 124.986 88.3681 123.224 88.3681 121.356V109.2C88.3681 108.717 82.2635 104.016 78.2494 100.978ZM99.8636 94.08C95.015 94.08 92.1689 99.5331 94.9413 103.511L95.746 104.665C96.7917 106.166 97.0961 108.061 96.5726 109.813L95.1898 114.443C94.0403 118.291 96.9226 122.16 100.939 122.16H112.682C116.698 122.16 119.581 118.291 118.431 114.443L117.048 109.813C116.525 108.061 116.829 106.166 117.875 104.665L118.68 103.511C121.452 99.5331 118.606 94.08 113.757 94.08H99.8636ZM76.9986 82.1148C75.9059 85.947 78.7837 89.76 82.7686 89.76H131.605C135.59 89.76 138.468 85.947 137.375 82.1148L134.022 70.3548C133.287 67.7774 130.932 66 128.252 66H86.1218C83.4417 66 81.0866 67.7774 80.3517 70.3548L76.9986 82.1148Z" fill="#E6EFF9"/>
</svg>

<svg viewBox="0 0 214 214" fill="none" xmlns="http://www.w3.org/2000/svg"><rect width="214" height="214" rx="8" fill="#E6EFF9"/><path d="M96.954 33.835a20 20 0 0 1 20.092 0l48 27.883A20 20 0 0 1 175 79.012v55.976a19.999 19.999 0 0 1-9.954 17.294l-48 27.883a20 20 0 0 1-20.092 0l-48-27.883A19.999 19.999 0 0 1 39 134.988V79.012a20 20 0 0 1 9.954-17.294l48-27.883Z" fill="#154A82"/><path d="M143.172 101.139a6 6 0 0 0-7.238-.005l-8.297 6.266a5.996 5.996 0 0 0-2.384 4.788v9.312c0 1.786-.796 3.48-2.171 4.62l-6.95 5.76a6.001 6.001 0 0 0-2.17 4.62v1.096a6 6 0 0 0 1.852 4.336l5.441 5.204a5.998 5.998 0 0 0 4.147 1.664h3.494c1.962 0 3.8-.959 4.922-2.569l20.505-29.419a6 6 0 0 0-1.301-8.214l-9.85-7.459Zm-64.923-.161a5.948 5.948 0 0 0-6.968-.142l-10.312 7.102a6 6 0 0 0-1.519 8.372l20.353 29.201a6 6 0 0 0 4.922 2.569h3.494a6 6 0 0 0 4.147-1.664l5.44-5.204a6 6 0 0 0 1.853-4.336v-.952a6 6 0 0 0-2.354-4.765l-6.583-5.038a6 6 0 0 1-2.354-4.765V109.2c0-.483-6.105-5.184-10.119-8.222Zm21.615-6.898c-4.849 0-7.695 5.453-4.923 9.431l.805 1.154a6 6 0 0 1 .827 5.148l-1.383 4.63c-1.15 3.848 1.733 7.717 5.749 7.717h11.743c4.016 0 6.899-3.869 5.749-7.717l-1.383-4.63a6.001 6.001 0 0 1 .827-5.148l.805-1.154c2.772-3.978-.074-9.431-4.923-9.431H99.864ZM76.999 82.115c-1.093 3.832 1.785 7.645 5.77 7.645h48.836c3.985 0 6.863-3.813 5.77-7.645l-3.353-11.76a6 6 0 0 0-5.77-4.355h-42.13a6 6 0 0 0-5.77 4.355l-3.353 11.76Z" fill="#E6EFF9"/></svg>
